svgs/sharp-solid/mercury.svg

<svg xmlns="http://www.w3.org/2000/svg" viewBox="0 0 384 512"><!--! Font Awesome Pro 6.6.0 by @fontawesome - https://fontawesome.com License - https://fontawesome.com/license (Commercial License) Copyright 2024 Fonticons, Inc. --><path d="M39.3 0c9.8 31.3 29 58.4 54.2 78.1C46.7 109.7 16 163.3 16 224c0 89.1 66.2 162.7 152 174.4l0 25.6-32 0-24 0 0 48 24 0 32 0 0 16 0 24 48 0 0-24 0-16 32 0 24 0 0-48-24 0-32 0 0-25.6c85.8-11.7 152-85.3 152-174.4c0-60.7-30.7-114.3-77.5-145.9C315.7 58.4 334.9 31.3 344.7 0L275.2 0C258.6 28.7 227.5 48 192 48s-66.6-19.3-83.2-48L39.3 0zM304 224A112 112 0 1 1 80 224a112 112 0 1 1 224 0z"/></svg>

<svg xmlns="http://www.w3.org/2000/svg" viewBox="0 0 384 512"><!--! Font Awesome Pro 6.4.2 by @fontawesome - https://fontawesome.com License - https://fontawesome.com/license (Commercial License) Copyright 2023 Fonticons, Inc. --><path d="M39.3 0c9.8 31.3 29 58.4 54.2 78.1C46.7 109.7 16 163.3 16 224c0 89.1 66.2 162.7 152 174.4V424H136 112v48h24 32v16 24h48V488 472h32 24V424H248 216V398.4c85.8-11.7 152-85.3 152-174.4c0-60.7-30.7-114.3-77.5-145.9C315.7 58.4 334.9 31.3 344.7 0H275.2C258.6 28.7 227.5 48 192 48s-66.6-19.3-83.2-48H39.3zM304 224A112 112 0 1 1 80 224a112 112 0 1 1 224 0z"/></svg>
